packages/icons/general/Location.svg

<svg xmlns="http://www.w3.org/2000/svg" fill="none" viewBox="0 0 24 24">
    <path fill="currentColor" fill-rule="evenodd" d="M11.9999 7.93994C10.691 7.93994 9.62988 9.00103 9.62988 10.3099C9.62988 11.6189 10.691 12.6799 11.9999 12.6799C13.3088 12.6799 14.3699 11.6189 14.3699 10.3099C14.3699 9.00103 13.3088 7.93994 11.9999 7.93994ZM8.12988 10.3099C8.12988 8.1726 9.86254 6.43994 11.9999 6.43994C14.1372 6.43994 15.8699 8.1726 15.8699 10.3099C15.8699 12.4473 14.1372 14.1799 11.9999 14.1799C9.86254 14.1799 8.12988 12.4473 8.12988 10.3099Z" clip-rule="evenodd"/>
    <path fill="currentColor" fill-rule="evenodd" d="M12.003 2.75C8.58622 2.74769 5.24436 4.73032 4.35113 8.65591C3.29407 13.3261 6.1878 17.3762 8.9099 19.9997C10.6404 21.661 13.3604 21.659 15.0789 20.0004L15.0802 19.999C17.8122 17.3756 20.7054 13.3354 19.6482 8.6656L19.6482 8.66556C18.7597 4.73971 15.4199 2.75231 12.003 2.75ZM21.1112 8.33441C20.0397 3.60029 15.9845 1.25269 12.004 1.25C8.02334 1.24731 3.96532 3.58953 2.8884 8.32364L2.88822 8.32441C1.64552 13.8139 5.0715 18.3836 7.86926 21.08L7.8702 21.0809C10.1796 23.2989 13.8188 23.3008 16.1202 21.08C18.928 18.3834 22.3539 13.8239 21.1112 8.33441Z" clip-rule="evenodd"/>
</svg>

<svg xmlns="http://www.w3.org/2000/svg" fill="none" viewBox="0 0 24 24">
    <path fill="currentColor" fill-rule="evenodd" d="M12 7.94a2.37 2.37 0 1 0 0 4.74 2.37 2.37 0 0 0 0-4.74m-3.87 2.37a3.87 3.87 0 1 1 7.74 0 3.87 3.87 0 0 1-7.74 0" clip-rule="evenodd"/>
    <path fill="currentColor" fill-rule="evenodd" d="M12.003 2.75c-3.417-.002-6.759 1.98-7.652 5.906C3.294 13.326 6.188 17.376 8.91 20a4.444 4.444 0 0 0 6.169 0h.001c2.732-2.623 5.625-6.664 4.568-11.333-.888-3.926-4.228-5.914-7.645-5.916m9.108 5.584C20.04 3.6 15.985 1.253 12.004 1.25S3.965 3.59 2.888 8.324c-1.242 5.49 2.184 10.06 4.981 12.756h.001a5.943 5.943 0 0 0 8.25 0c2.808-2.697 6.234-7.256 4.991-12.746" clip-rule="evenodd"/>
</svg>
